!!!!SEGMENT: pl-wtm--r-2283_troschel-wilhelm--ostatnia-roza.krn
!!!cenid: 18xx:2248
!!!COM: Troschel, Wilhelm
!!!COM-rismid: pe30024099
!!!CDT: 1823/08/23-1887/03/02
!!!CNT: Polish
!!!OTL: Ostatnia róża
!!!PDT:
!!!AGN:
!!!SMS-siglum: PL-Wtm
!!!SMS-shelfmark: R 2283
!!!SMS-shelfwork: W
!!!SMS-variant:
!!!SMS-altvar:
!!!NIFC-rismid: 1001113730
!!!URL-scan: http://repozytorium.nifc.pl/skany/pl-wtm-nut--r2283
!!!ONB-nifc:
**kern	**fing	**kern	**dynam	**fing	**kern	**text	**text	**text	**dynam
*part2	*part2	*part2	*part2	*part2	*part1	*part1	*part1	*part1	*part1
*staff3	*staff3	*staff2	*	*staff2	*staff1	*staff1	*staff1	*staff1	*
*Iempty	*	*Iforte	*	*	*Ivox	*	*	*	*
*	*	*I"Fortepian	*	*	*I"Spiew	*	*	*	*
*>[A,A,A]	*>[A,A,A]	*>[A,A,A]	*>[A,A,A]	*>[A,A,A]	*>[A,A,A]	*>[A,A,A]	*>[A,A,A]	*>[A,A,A]	*>[A,A,A]
*>A	*>A	*>A	*>A	*>A	*>A	*>A	*>A	*>A	*>A
*clefF4	*	*clefG2	*	*	*clefG2	*	*	*	*
*k[b-]	*	*k[b-]	*	*	*k[b-]	*	*	*	*
*d:	*	*d:	*	*	*d:	*	*	*	*
*M12/8	*	*M12/8	*	*	*M12/8	*	*	*	*
=1	=1	=1	=1	=1	=1	=1	=1	=1	=1
*	*	*^	*	*	*	*	*	*	*
*2\right	*	*	*	*	*below	*	*	*	*	*
!LO:TX:t=[segno]	!	!LO:TX:t=[segno]	!	!LO:TX:t=[segno]	!	!LO:TX:t=P:problem:all\right:global	!	!	!	!
!	!	!	!	!LO:DY:t=p.	!	!LO:TX:a:t=Andantino	!	!	!	!
!	!	!	!	!	!	!LO:N:vis=1.	!	!	!	!
4r	.	(4a/	4r	p	3	1.r	.	.	.	.
8r	.	8b-/	8r	.	.	.	.	.	.	.
4.c#X\	2	4a/	4.e\ 4.g	.	.	.	.	.	.	.
.	.	8b-/	.	<	.	.	.	.	.	.
4.d\	.	4a/	4.f\	.	.	.	.	.	.	.
.	.	8dd/	.	.	.	.	.	.	.	.
4.B-\	.	4d/	4.d\	[	.	.	.	.	.	.
.	.	8e/)	.	.	.	.	.	.	.	.
=2	=2	=2	=2	=2	=2	=2	=2	=2	=2	=2
*	*	*	*	*^	*	*	*	*	*	*
!	!	!	!	!	!	!	!LO:N:vis=1r	!	!	!	!
4.A\	.	(4f/	4.d\	>	.	.	1.r	.	.	.	.
!	!	!	!	!	!LO:HP:a:t=dim&colon;	!	!	!	!	!	!
.	.	8a/	.	.	>	.	.	.	.	.	.
!	!	!LO:TX:t=P:problem:tutaj nie ma pionu między prawą a lewą ręką	!	!	!LO:DY:a	!	!	!	!	!	!
((4.AA\ 4.G	.	4e/	4.c#X\	.	.	.	.	.	.	.	.
.	.	8a/	.	]	.	.	.	.	.	.	.
4D\)) 4F	.	8d/	8d\	.	.	.	.	.	.	.	.
!	!	!	!	!	!LO:DY:t=p.	!	!	!	!	!	!
.	.	8A</L	8ryy	.	p	.	.	.	.	.	.
8r	.	8d/	2ryy	.	.	.	.	.	.	.	.
*	*	*	*	*v	*v	*	*	*	*	*	*
4r	.	8f/	.	.	.	.	.	.	.	.
.	.	8d/)	.	.	.	.	.	.	.	.
8r	.	8A</J	.	.	.	.	.	.	.	.
*	*	*v	*v	*	*	*	*	*	*	*
!!LO:LB:g=original
=3	=3	=3	=3	=3	=3	=3	=3	=3	=3
2.DD/	.	8r	] p	.	4.a/	O-	Po	Gdy	p
.	.	(8F</L	.	.	.	.	.	.	.
.	.	8A</J	.	.	.	.	.	.	.
.	.	8d/L	.	.	(4f/	-stat-	cóż	w ży-	.
.	.	8A</	.	.	.	.	.	.	.
.	.	8F</J)	.	.	8d/)	-nia	ci	-cia	.
2.EE/	.	8r<	.	.	4.d/	ró-	dłu-	bie-	.
.	.	(8G</L	.	.	.	.	.	.	.
.	.	8A</J	.	.	.	.	.	.	.
.	.	8c#X</L	.	.	4.c#X/	-ża	-żej	-gu	.
.	.	8A</	.	.	.	.	.	.	.
.	.	8G</J)	.	.	.	.	.	.	.
=4	=4	=4	=4	=4	=4	=4	=4	=4	=4
4.FF\	.	8r<	.	.	4d/	skwar-	żyć	wio-	.
.	.	(8F</L	.	.	.	.	.	.	.
.	.	8A</J	.	.	8e/	.	.	.	.
4.DD\	.	8d/L	.	.	8f/L	-ne-	na	-sna	.
.	.	8A</	.	.	8g/J	.	.	.	.
.	.	8F</J)	.	.	8a/	-go,	téj	u-	.
2.CC#X/	.	8r<	.	.	(4.a/	la-	zie-	-le-	.
.	.	(8G</L	.	.	.	.	.	.	.
.	.	8A</J	.	.	.	.	.	.	.
.	.	8e/L	.	.	4e/)	-ta,	-mi,	-ci,	.
.	.	8A</	.	.	.	.	.	.	.
.	.	8G</J)	.	.	8ryy	.	.	.	.
!!LO:LB:g=original
=5	=5	=5	=5	=5	=5	=5	=5	=5	=5
!	!	!	!	!	!	!	!	!	!LO:HP:b
2.DD/	.	8r<	<	.	4.f/	Na-	Gdy	Gdy	<
.	.	(8F</L	.	.	.	.	.	.	.
.	.	8A</J	.	.	.	.	.	.	.
.	.	8d/L	.	.	4a/	-chy-	już	się	.
.	.	8A</	[	.	.	.	.	.	.
.	.	8F</J)	.	.	8dd\	-la	twe	nie	[
!	!	!	!	!	!	!	!	!	!LO:HP:b
2.GGG/ 2.GG	.	8r<	>	.	(4.dd\	głów-	sio-	czu-	>
.	.	(8E</L	.	.	.	.	.	.	.
.	.	8B-</J	.	.	.	.	.	.	.
.	.	8d/L	.	.	4.e/)	-kę,	-stry	-je	]
.	.	8B-</	]	.	.	.	.	.	.
.	.	8E</J)	.	.	.	.	.	.	.
=6	=6	=6	=6	=6	=6	=6	=6	=6	=6
!	!	!	!	!	!	!	!	!	!LO:DY:b
2.GGG#X/ 2.GG#X	.	8r<	p	.	4.e/	poch-	spo-	u-	p
.	.	(8E</L	.	.	.	.	.	.	.
.	.	8Bn</J	.	.	.	.	.	.	.
.	.	.	.	.	8qg/	.	.	.	.
.	.	8d/L	.	.	4f/	-mu-	-czę-	-ścis-	.
.	.	8B</	.	.	.	.	.	.	.
.	.	8E</J)	.	.	8e/	-rza	-ły	-ku	.
2.AAA/ 2.AA	.	8r<	.	.	(4.e/	li-	w gro-	bra-	.
.	.	(8E</L	.	.	.	.	.	.	.
.	.	8A</J	.	.	.	.	.	.	.
.	.	8c#X</L	.	.	4a/)	-ce,	-bie?	-ta,	.
.	.	8A</)	.	.	.	.	.	.	.
.	.	8E</J	.	.	8r	.	.	.	.
!!LO:LB:g=original
=7	=7	=7	=7	=7	=7	=7	=7	=7	=7
!	!	!	!	!	!	!	!	!	!LO:HP:b
2.GG\	.	8r<	.	.	4.b-/	Bo	Ty	Sło-	<
.	.	(8E</L	.	.	.	.	.	.	.
.	.	8B-X</J	.	.	.	.	.	.	.
.	.	8c#X</L	.	.	4b-/	już	tę-	-ńce	.
.	.	8B-</	.	.	.	.	.	.	.
.	.	8E</J)	.	.	8b-/	od	-sknisz	mi-	.
!	!	!	!	!	!	!	!	!	!LO:HP:b
2.FF\	.	8r<	.	.	4.b-^>/	daw-	po	-ło-	[ >
.	.	(8F</L	.	.	.	.	.	.	.
.	.	8A</J	.	.	.	.	.	.	.
.	.	8d/L	.	.	4.a/	-na	nich	-ści	]]
.	.	8A</	.	.	.	.	.	.	.
.	.	8F</J)	.	.	.	.	.	.	.
=8	=8	=8	=8	=8	=8	=8	=8	=8	=8
2.EE/	.	8r<	.	.	8r	.	.	.	.
.	.	(8G</L	.	.	8r	.	.	.	.
.	.	8A</J	.	.	8a/	zni-	więc	gdy	.
.	.	8c#X</L	.	.	4bn\	-kły	złącz	już	.
.	.	8A</	.	.	.	.	.	.	.
.	.	8G</J)	.	.	8cc#X\	ze	się	nie	.
2.DD/	.	8r<	.	.	(4.dd\	świa-	z nie-	świe-	.
.	.	(8F</L	.	.	.	.	.	.	.
.	.	8A</J	.	.	.	.	.	.	.
.	.	8d/L	.	.	4.f/)	-ta,	-mi,	-ci,	.
.	.	8A</	.	.	.	.	.	.	.
.	.	8F</J)	.	.	.	.	.	.	.
!!LO:PB:g=original
=9	=9	=9	=9	=9	=9	=9	=9	=9	=9
!	!	!	!	!	!	!	!	!	!LO:DY:b
2.GGG/ 2.GG	.	8r<	.	.	4.e-X/	Jéj	Śmierć	Wte-	f
.	.	(8G</L	.	.	.	.	.	.	.
.	.	8B-X</J	.	.	.	.	.	.	.
.	.	8e-X/L	.	.	4g/	ró-	ci	-dy	.
.	.	8B-</)	.	.	.	.	.	.	.
.	.	8G</J	.	.	8b-/	-wieś-	za-	to	.
2.AAA/ 2.AA	.	8r	.	.	(4.a/	-nicz-	-da-	chciał-	.
.	.	(8F</L	.	.	.	.	.	.	.
.	.	8A</J	.	.	.	.	.	.	.
.	.	8d/L	.	.	4.d/)	-ki	-jąc	-bym	.
.	.	8A</	.	.	.	.	.	.	.
.	.	8F</J)	.	.	.	.	.	.	.
=10	=10	=10	=10	=10	=10	=10	=10	=10	=10
*	*	*	*^	*	*	*	*	*	*^
!	!	!	!	!	!	!	!	!	!	!	!LO:DY:a
2.AAA/ 2.AA	.	8r<	.	.	.	[4.f/	ró-	ła-	zejść	>	.
.	.	(8F</L	.	.	.	.	.	.	.	.	.
.	.	8G#X</J	.	.	.	.	.	.	.	.	.
!	!	!	!	!LO:HP:t=dim&colon;	!	!	!	!	!	!	!LO:HP:t=dim&colon;
.	.	8d/L	>	>	.	8f/]	.	.	.	.	>
.	.	8G#</	.	.	.	8en/	-że	-skę	z te-	.	.
.	.	8F</J)	.	.	.	8d/	sio-	ci	-go	.	.
[2.AA\	.	8r<	.	.	.	4.e/	-strzy-	zro-	świa-	.	.
.	.	(8E</L	.	.	.	.	.	.	.	.	.
.	.	8A</J	]	.	.	.	.	.	.	.	.
.	.	8c#X/L	.	.	.	4A/ 4e	-ce	-bię:	-ta:	]	.
.	.	8A</)	.	.	.	.	.	.	.	.	.
.	.	8E</J	.	.	.	8r	.	.	.	.	.
*	*	*	*v	*v	*	*	*	*	*	*v	*v
=11	=11	=11	=11	=11	=11	=11	=11	=11	=11
*2\left	*	*	*	*	*	*	*	*	*
!	!	!	!	!	!	!	!LO:N:vis=1.	!	!
(2.GG\ 2.AA]	.	8r<	.	.	1.r	.	.	.	.
!	!	!LO:TX:a:t=poco rit.	!	!	!	!	!	!	!
.	.	(8A</L	.	.	.	.	.	.	.
.	.	8c#X/J	>	.	.	.	.	.	.
.	.	8e/L	.	.	.	.	.	.	.
.	.	8c#/	.	.	.	.	.	.	.
.	.	8A</J	.	.	.	.	.	.	.
4.FF#X\	.	8f#X/L	]	.	.	.	.	.	.
.	.	8d/	.	.	.	.	.	.	.
.	.	8A</J	.	.	.	.	.	.	.
4.EE\)	.	8g/L	.	.	.	.	.	.	.
.	.	8c#/	.	.	.	.	.	.	.
!	!	!LO:TX:t=P:kasownik przed zmianą tonacji nad i pod 8A:problem	!	!	!	!	!	!	!
.	.	8A</J)	.	.	.	.	.	.	.
*kcancel	*	*kcancel	*	*	*kcancel	*	*	*	*
!!LO:LB:g=original
=12||	=12||	=12||	=12||	=12||	=12||	=12||	=12||	=12||	=12||
*k[f#c#]	*	*k[f#c#]	*	*	*k[f#c#]	*	*	*	*
!	!	!	!	!	!LO:TX:a:t=dolce e cantabile	!	!	!	!
(4.DD/ 4.D	.	8r<	p	.	4.f#/	Przed	Zer-	Bo	.
.	.	8A/L 8d 8f#	<	.	.	.	.	.	.
.	.	8A/J 8d 8f#	.	.	.	.	.	.	.
4AAA/) 4AA	.	8r	.	.	4f#/	o-	-wę	smut-	.
.	.	8A/L 8d 8f#	.	.	.	.	.	.	.
8DD/ 8D	.	8A/J 8d 8f#	[	.	8f#/	-kiem	twój	-ny	.
(4.DD#X/ 4.D#X	.	8r	.	.	4.a/	ludz-	kwia-	ko-	.
.	.	8A/L 8cn 8f#	>	.	.	.	.	.	.
.	.	8A/J 8c 8f#	.	.	.	.	.	.	.
4.EE/) 4.E	.	8A/L 8c#X 8g	.	.	4.g/	-kiém	-tek	-niec	.
.	.	8A/ 8c# 8g	.	.	.	.	.	.	.
.	.	8A/J 8c# 8g	]	.	.	.	.	.	.
=13	=13	=13	=13	=13	=13	=13	=13	=13	=13
(4.EE/ 4.E	.	8r	.	.	4cc#\	Kry-	co	ziem-	.
.	.	8A/L 8c# 8g	<	.	.	.	.	.	.
.	.	8A/J 8c# 8g	.	.	8b\	-[[je]]-	[[już]]	.	.
4AAA/) 4AA	.	8r	.	.	8e/L	-je	już	-skiéj	.
.	.	8A/L 8c# 8f#	[	.	8f#/J	.	.	.	.
8EE/ 8E	.	8A/J 8c# 8g	.	.	8g/	się	kwitł	po-	.
(4.EE#X/ 4.E#X	.	8r	>	.	(4.b\	w cie-	ty-	-dró-	.
.	.	8B/L 8d 8g#X	.	.	.	.	.	.	.
.	.	8B/J 8d 8g#	.	.	.	.	.	.	.
4.FF#/) 4.F#	.	8A/L 8d 8a	]	.	4.a\)	-niu	-le,	-ży	.
.	.	8A/ 8d 8a	.	.	.	.	.	.	.
.	.	8A/J 8d 8a	.	.	.	.	.	.	.
=14	=14	=14	=14	=14	=14	=14	=14	=14	=14
*ped	*	*	*	*	*	*	*	*	*
!	!	!	!	!	!	!	!	!	!LO:DY:b
2.FFF#/ 2.FF#	.	8r	f	.	4.dd\	Smut-	Ło-	Tak	f
.	.	(8A'/L 8d 8f# 8a	.	.	.	.	.	.	.
.	.	8A'/J 8d 8f# 8a	.	.	.	.	.	.	.
.	.	8A'/L 8d 8f# 8a	.	.	(4a/	-ne	-dy-	jak	.
.	.	8A'/ 8d 8f# 8a	.	.	.	.	.	.	.
*Xped	*	*	*	*	*	*	*	*	*
.	.	8A'/J) 8d 8f#	.	.	8f#/)	dni	-gę	i-	.
!!LO:LB:g=original
2.BBB/ 2.BB	.	8r	.	.	4.d/	pę-	zło-	-stnie-	.
.	.	8F#</L 8B< 8d	.	.	.	.	.	.	.
.	.	8F#</J 8B< 8d	.	.	.	.	.	.	.
.	.	8F#</L 8B< 8d	.	.	4.d/	-dząc	-żę	-nie	.
.	.	8F#</ 8B< 8d	.	.	.	.	.	.	.
.	.	8F#</J 8B< 8d	.	.	.	.	.	.	.
=15	=15	=15	=15	=15	=15	=15	=15	=15	=15
!	!	!	!	!	!	!	!	!	!LO:DY:b
2.EE/	.	8r	p	.	4.a/	w o-	w brat-	o-	p
.	.	8G/L 8B 8d 8e	.	.	.	.	.	.	.
.	.	8G/J 8B 8d 8e	.	.	.	.	.	.	.
.	.	8G/L 8B 8d 8e	.	.	(4g/	-sa-	-niéj	-stat-	.
.	.	8G/ 8B 8d 8e	.	.	.	.	.	.	.
.	.	8G/J 8B 8d 8e	.	.	8f#/)	-mot-	mo-	-niéj	.
(4.AA/	.	8r	.	.	4.e/	-nie-	-gi-	ró-	.
.	.	8A/L 8c# 8e	.	.	.	.	.	.	.
.	.	8A/J 8c# 8e	.	.	.	.	.	.	.
4GGn/)	.	8A/L 8c# 8e	.	.	4e/	-niu.	-le.	-ży.	.
.	.	8A/ 8c# 8e	.	.	.	.	.	.	.
8ryy	.	8A/J 8c# 8e	.	.	8r	.	.	.	.
=16	=16	=16	=16	=16	=16	=16	=16	=16	=16
(4.FF#/	.	8r	.	.	4.f#/	Przed	Zer-	Bo	.
.	.	8A#X/L 8c# 8f#	.	.	.	.	.	.	.
.	.	8A#/J 8c# 8f#	.	.	.	.	.	.	.
4.EE/	.	8A#/L 8c# 8f#	.	.	4f#/	o-	-wę	smut-	<
.	.	8A#/ 8c# 8f#	.	.	.	.	.	.	.
!	!	!	!LO:HP:t=cresc&colon;	!	!	!	!	!	!
.	.	8A#/J 8c# 8f#	<	.	8f#/	-kiem	twój	-ny	.
2.DD/) 2.D	.	8r	.	.	(4.b/	ludz-	kwia-	ko-	.
.	.	8B/L 8d 8f#	.	.	.	.	.	.	.
.	.	8B/J 8d 8f#	.	.	.	.	.	.	.
.	.	8B/L 8d 8f#	.	.	4.f#/)	-kiém	-tek	-niec	[[
.	.	8B/ 8d 8f#	.	.	.	.	.	.	.
.	.	8B/J 8d 8f#	.	.	.	.	.	.	.
!!LO:LB:g=original
=17	=17	=17	=17	=17	=17	=17	=17	=17	=17
*ped	*	*	*	*	*	*	*	*	*
4.CC#/ 4.C#	.	8r	.	.	[4.f#/	Kry-	co	ziem-	.
.	.	8A#X/L 8e 8f#	.	.	.	.	.	.	.
.	.	8A#/J 8e 8f#	.	.	.	.	.	.	.
4.FFF#/ 4.FF#	.	8A#/L 8e 8f#	.	.	8f#/]	.	.	.	.
.	.	8A#/ 8e 8f#	.	.	8a#X/	-je	już	-skiéj	.
*Xped	*	*	*	*	*	*	*	*	*
.	.	8A#/J 8e 8f#	.	.	8cc#\	się	kwitł	pod-	.
*ped	*	*	*	*	*	*	*	*	*
2.BBB/ 2.BB	.	8r	f	.	(4.ee\	w cie-	ty-	-ró-	.
.	.	8A#X/L 8c# 8g	>	.	.	.	.	.	.
.	.	8A#/J 8c# 8g	.	.	.	.	.	.	.
.	.	8B/L 8d 8f#	.	.	4.dd\)	-niu	-le	-ży	.
.	.	8B/ 8d 8f#	.	.	.	.	.	.	.
*Xped	*	*	*	*	*	*	*	*	*
.	.	8B/J 8d 8f#	]]	.	.	.	.	.	.
=18	=18	=18	=18	=18	=18	=18	=18	=18	=18
!	!	!	!	!	!	!	!	!	!LO:DY:b
2.GGG/ 2.GG	.	8r	p	.	4.dd\	Smut-	Ło-	Tak	p
.	.	8B/L 8d 8g	.	.	.	.	.	.	.
.	.	8B/J 8d 8g	.	.	.	.	.	.	.
.	.	8B/L 8d 8g	.	.	(4b\	-ne	-dy-	jak	.
.	.	8B/ 8d 8g	.	.	.	.	.	.	.
.	.	8B-X/J 8d 8g	.	.	8g/)	dni	-gę	i-	.
2.AAA/ 2.AA	.	8r	.	.	4.f#/	pę-	zło-	-stnie-	.
.	.	8A/L 8d 8f#	.	.	.	.	.	.	.
.	.	8A/J 8d 8f#	.	.	.	.	.	.	.
!	!	!LO:TX:b:t=eis.\nd.\nh.\ngis.	!	!	!	!	!	!	!
.	.	8G#X/L 8Bn 8d 8e#X	.	.	(4e#X/	-dząc	-żę	-nie	.
.	.	8G#/ 8B 8d 8e#X	.	.	.	.	.	.	.
.	.	8A/J 8d 8f#	.	.	8f#/)	.	.	.	.
=19	=19	=19	=19	=19	=19	=19	=19	=19	=19
*^	*	*	*	*	*	*	*	*	*
!	!	!	!	!	!	!LO:TX:a:t=poco rit&colon;	!	!	!	!
2.AA/	4.AA\	.	8r	.	.	4.g/	w o-	w brat-	o-	.
!	!	!	!LO:TX:b:t=poco rit&colon;	!	!	!	!	!	!	!
.	.	.	8B/L 8d 8g	>	.	.	.	.	.	.
.	.	.	8B-X/J 8d 8g	.	.	.	.	.	.	.
!	!	!	!	!	!	!	!	!	!	!LO:DY:a
.	4.AAA\	.	8r	.	.	(4f#/	-sa-	-niéj	-sta-	>
.	.	.	8A/L 8c# 8f#	.	.	.	.	.	.	.
.	.	.	8G/J 8c# 8e	.	.	8e/)	-mot-	mo-	-tniéj	.
4ryy	[4.DD\	.	8r	.	.	4.d/	-nie-	-gi-	ró-	.
.	.	.	8F#</L 8A< 8d	]	.	.	.	.	.	.
2ryy	.	.	8G</J 8B-X< 8d	.	.	.	.	.	.	.
.	4DD\]	.	4F#</ 4A< 4d	.	.	4d/	-niu.	-le.	-ży	]
!	!	!	!LO:TX:b:t=Fine	!	!	!LO:TX:t=P:problem:znak repetycji/powtórzenia na początku	!	!	!	!
.	8r	.	8r	.	.	8r	.	.	.	.
*v	*v	*	*	*	*	*	*	*	*	*
!LO:TX:t=[segno]	!	!LO:TX:t=[segno]	!	!	!LO:TX:t=[segno]	!	!	!	!
==	==	==	==	==	==	==	==	==	==
*-	*-	*-	*-	*-	*-	*-	*-	*-	*-
!!!system-decoration: s1{s2,s3}
!!!RDF**kern: > = above
!!!RDF**kern: < = below
!!!AIN: 1 empty 1 vox
!!!ENC: Andrzej Gręziak
!!!END: 2021-05-24
